X: 28630
T: Music In The Glen
R: reel
M: 4/4
K: Gmajor
"G"G2BG EGDC'|b,DGB AGAB|"C"cdec "C(B)"B2 (3dcB|"Am"BAAG "D"AGEF|
"G"GABG EGDC'|b,DGB AGAB|"C"cdef ~g3e|1 "D"dcBA "G"G2EF:|2 "D"dcBA "G"~G3A||
"G"BGdG eGdG|(3BAG dB "D"cAFA|"G"BGdG eGdf|gdBG "D"AGEG|
"G"(3BAG dG eGdf|g2 fg "D"afdf|"Em"g2fg egdB|"C"cABG "D"AGEG:|

